Adwaita++/apps/scalable/palapeli.svg

<svg fill="none" height="128" viewBox="0 0 128 128" width="128" xmlns="http://www.w3.org/2000/svg" xmlns:xlink="http://www.w3.org/1999/xlink">
  <linearGradient id="paint0_linear" gradientUnits="userSpaceOnUse" x1="117.458" x2="10.5421" y1="123.281" y2="123.281">
    <stop offset="0" stop-color="#d5d3cf"/>
    <stop offset=".038" stop-color="#e3e2df"/>
    <stop offset=".077" stop-color="#c0bfbc"/>
    <stop offset=".923" stop-color="#c0bfbc"/>
    <stop offset=".962" stop-color="#e3e2df"/>
    <stop offset="1" stop-color="#d5d3cf"/>
  </linearGradient>
  <g clip-rule="evenodd" fill-rule="evenodd">
    <path d="m10.5421 24.4206c0-4.5563 3.668-8.2243 8.2243-8.2243h90.4676c4.556 0 8.224 3.668 8.224 8.2243v30.3271c-7.097 0-12.851 5.7533-12.851 12.8504 0 7.0972 5.754 12.8505 12.851 12.8505v30.3274c0 4.556-3.668 8.224-8.224 8.224h-32.3835c0-7.097-5.7534-12.85-12.8505-12.85s-12.8505 5.753-12.8505 12.85h-32.3831c-4.5563 0-8.2243-3.668-8.2243-8.224v-26.6265c2.7883 1.8823 6.1489 2.9813 9.7663 2.9813 9.6521 0 17.4766-7.8245 17.4766-17.4766s-7.8245-17.4766-17.4766-17.4766c-3.6174 0-6.978 1.099-9.7663 2.9813z" fill="url(#paint0_linear)"/>
    <path d="m10.5421 17.2243c0-4.5563 3.668-8.2243 8.2243-8.2243h90.4676c4.556 0 8.224 3.668 8.224 8.2243v30.3271c-7.097 0-12.851 5.7534-12.851 12.8505s5.754 12.8504 12.851 12.8504v30.3267c0 4.557-3.668 8.225-8.224 8.225h-32.3835c0-7.097-5.7534-12.8507-12.8505-12.8507s-12.8505 5.7537-12.8505 12.8507h-32.3831c-4.5563 0-8.2243-3.668-8.2243-8.225v-26.6258c2.7883 1.8824 6.1489 2.9814 9.7663 2.9814 9.6521 0 17.4766-7.8246 17.4766-17.4767 0-9.652-7.8245-17.4766-17.4766-17.4766-3.6174 0-6.978 1.099-9.7663 2.9814z" fill="#33d17a"/>
  </g>
</svg>

<svg width="128" height="128" viewBox="0 0 128 128" fill="none" xmlns="http://www.w3.org/2000/svg">
<path fill-rule="evenodd" clip-rule="evenodd" d="M10.5421 24.4206C10.5421 19.8643 14.2101 16.1963 18.7664 16.1963H109.234C113.79 16.1963 117.458 19.8643 117.458 24.4206L117.458 54.7477C110.361 54.7477 104.607 60.501 104.607 67.5981C104.607 74.6953 110.361 80.4486 117.458 80.4486L117.458 110.776C117.458 115.332 113.79 119 109.234 119H76.8505C76.8505 111.903 71.0971 106.15 64 106.15C56.9029 106.15 51.1495 111.903 51.1495 119H18.7664C14.2101 119 10.5421 115.332 10.5421 110.776V84.1495C13.3304 86.0318 16.691 87.1308 20.3084 87.1308C29.9605 87.1308 37.785 79.3063 37.785 69.6542C37.785 60.0021 29.9605 52.1776 20.3084 52.1776C16.691 52.1776 13.3304 53.2766 10.5421 55.1589V24.4206Z" fill="url(#paint0_linear)"/>
<path fill-rule="evenodd" clip-rule="evenodd" d="M10.5421 17.2243C10.5421 12.668 14.2101 9 18.7664 9H109.234C113.79 9 117.458 12.668 117.458 17.2243L117.458 47.5514C110.361 47.5514 104.607 53.3048 104.607 60.4019C104.607 67.499 110.361 73.2523 117.458 73.2523L117.458 103.579C117.458 108.136 113.79 111.804 109.234 111.804H76.8505C76.8505 104.707 71.0971 98.9533 64 98.9533C56.9029 98.9533 51.1495 104.707 51.1495 111.804H18.7664C14.2101 111.804 10.5421 108.136 10.5421 103.579V76.9532C13.3304 78.8356 16.691 79.9346 20.3084 79.9346C29.9605 79.9346 37.785 72.11 37.785 62.4579C37.785 52.8059 29.9605 44.9813 20.3084 44.9813C16.691 44.9813 13.3304 46.0803 10.5421 47.9627V17.2243Z" fill="url(#paint1_linear)"/>
<defs>
<linearGradient id="paint0_linear" x1="117.458" y1="123.281" x2="10.5421" y2="123.281" gradientUnits="userSpaceOnUse">
<stop stop-color="#D5D3CF"/>
<stop offset="0.038" stop-color="#E3E2DF"/>
<stop offset="0.077" stop-color="#C0BFBC"/>
<stop offset="0.923" stop-color="#C0BFBC"/>
<stop offset="0.962" stop-color="#E3E2DF"/>
<stop offset="1" stop-color="#D5D3CF"/>
</linearGradient>
<linearGradient id="paint1_linear" x1="10.542" y1="60.4019" x2="117.458" y2="60.4019" gradientUnits="userSpaceOnUse">
<stop stop-color="#33D17A"/>
</linearGradient>
</defs>
</svg>
